mailoptin/src/connections/assets/images/dynamics365-integration.svg

<svg height="488.212" preserveAspectRatio="none" viewBox="61.0904 5.5368 355.9882 488.2116" width="355.988" xmlns="http://www.w3.org/2000/svg" xmlns:xlink="http://www.w3.org/1999/xlink"><filter id="a"><feFlood flood-opacity="0" result="BackgroundImageFix"/><feBlend in="SourceGraphic" in2="BackgroundImageFix" mode="normal" result="shape"/><feGaussianBlur result="effect1_foregroundBlur" stdDeviation=".4"/></filter><filter id="b"><feFlood flood-opacity="0" result="BackgroundImageFix"/><feBlend in="SourceGraphic" in2="BackgroundImageFix" mode="normal" result="shape"/><feGaussianBlur result="effect1_foregroundBlur" stdDeviation="4"/></filter><linearGradient id="c" gradientUnits="userSpaceOnUse" x1="38.0451" x2="56.6585" y1="-1" y2="47.7233"><stop offset="0" stop-color="#0b53ce"/><stop offset="1" stop-color="#7252aa"/></linearGradient><linearGradient id="d" gradientUnits="userSpaceOnUse" x1="64.1377" x2="64.1377" y1="93.4922" y2="35.4151"><stop offset="0" stop-color="#2266e3"/><stop offset="1" stop-color="#ae7fe2"/></linearGradient><linearGradient id="e" gradientUnits="userSpaceOnUse" x1="82" x2="62.0764" y1="56.7858" y2="56.7858"><stop offset="0" stop-color="#94b9ff"/><stop offset=".2878" stop-color="#94b9ff" stop-opacity=".523646"/><stop offset="1" stop-color="#538fff" stop-opacity="0"/></linearGradient><clipPath id="f"><path d="m0 0h96v96h-96z"/></clipPath><mask id="g" height="96" maskUnits="userSpaceOnUse" width="70" x="12" y="0"><path d="m82.0001 31.047c0-4.2261-2.6567-7.996-6.6367-9.4174l-58.0181-20.72057c-2.6049-.9303396-5.3453 1.00085-5.3453 3.76697v31.5051c0 1.6904 1.0627 3.1984 2.6547 3.767l26 9.2857c2.6049.9303 5.3453-1.0009 5.3453-3.767v-18.09c0-1.3974 1.3966-2.3641 2.7044-1.8719l6.8178 2.5658c3.8973 1.4667 6.4778 5.195 6.4778 9.3592v7.8777l-29.3728 10.7323c-1.5777.5765-2.6272 2.0773-2.6272 3.7571v31.4827c0 2.7785 2.7631 4.7106 5.3728 3.757l40.0592-14.6371c3.9443-1.4412 6.568-5.1932 6.568-9.3926z" fill="#fff"/></mask><g clip-path="url(#f)" transform="matrix(5.08553791 0 0 5.08553791 .063967 5.536848)"><g mask="url(#g)"><path d="m12-1 70.0001 24.9998v34.3247c0 2.766-2.74 4.6972-5.345 3.7672l-14.6551-5.2324v-19.4352c0-4.1661-2.5829-7.8958-6.4828-9.3611l-6.8138-2.5601c-1.3077-.4913-2.7034.4753-2.7034 1.8722v23.7677l-34-12.1428z" fill="url(#c)"/><g filter="url(#a)"><path d="m82 31.3998c0 4.1994-2.6237 7.9588-6.5681 9.4l-45.4319 16.6001v40l52-19.0001z" fill-opacity=".24"/></g><g filter="url(#b)"><path d="m82 32.9998c0 4.1994-2.6237 7.9587-6.5681 9.3999l-45.4319 16.6002v40l52-19.0001z" fill-opacity=".32"/></g><path d="m82 30.9998c0 4.1994-2.6237 7.9587-6.5681 9.3999l-45.4319 16.6002v40l52-19.0001z" fill="url(#d)"/><path d="m82 30.9998c0 4.1994-2.6237 7.9587-6.5681 9.3999l-45.4319 16.6002v40l52-19.0001z" fill="url(#e)" opacity=".5"/><path d="m62.0013 45.3202-16.0091 5.8566.0001 23.4581c0 1.3974 1.3967 2.364 2.7045 1.8717l6.8273-2.5698c3.897-1.4669 6.4772-5.195 6.4772-9.3589z" fill="#b0adff" opacity=".5"/></g></g></svg>

<?xml version="1.0" encoding="utf-8"?>
<svg viewBox="61.0904 5.5368 355.9882 488.2116" width="355.988px" height="488.212px" preserveAspectRatio="none" xmlns="http://www.w3.org/2000/svg"><g clip-path="url(#clip0)" transform="matrix(5.085537910461426, 0, 0, 5.085537910461426, 0.06396700537156619, 5.53684815074277)" style="" id="object-0"><defs><filter id="filter0_f"><feFlood flood-opacity="0" result="BackgroundImageFix"/><feBlend mode="normal" in="SourceGraphic" in2="BackgroundImageFix" result="shape"/><feGaussianBlur stdDeviation="0.4" result="effect1_foregroundBlur"/></filter><filter id="filter1_f"><feFlood flood-opacity="0" result="BackgroundImageFix"/><feBlend mode="normal" in="SourceGraphic" in2="BackgroundImageFix" result="shape"/><feGaussianBlur stdDeviation="4" result="effect1_foregroundBlur"/></filter><linearGradient id="paint0_linear" x1="38.0451" y1="-1" x2="56.6585" y2="47.7233" gradientUnits="userSpaceOnUse"><stop stop-color="#0B53CE"/><stop offset="1" stop-color="#7252AA"/></linearGradient><linearGradient id="paint1_linear" x1="64.1377" y1="93.4922" x2="64.1377" y2="35.4151" gradientUnits="userSpaceOnUse"><stop stop-color="#2266E3"/><stop offset="1" stop-color="#AE7FE2"/></linearGradient><linearGradient id="paint2_linear" x1="82" y1="56.7858" x2="62.0764" y2="56.7858" gradientUnits="userSpaceOnUse"><stop stop-color="#94B9FF"/><stop offset="0.2878" stop-color="#94B9FF" stop-opacity="0.523646"/><stop offset="1" stop-color="#538FFF" stop-opacity="0"/></linearGradient><clipPath id="clip0"><rect width="96" height="96" fill="white"/></clipPath></defs><mask id="mask0" mask-type="alpha" maskUnits="userSpaceOnUse" x="12" y="0" width="70" height="96"><path d="M82.0001 31.047C82.0001 26.8209 79.3434 23.051 75.3634 21.6296L17.3453 0.90903C14.7404 -0.0213096 12 1.90988 12 4.676V36.1811C12 37.8715 13.0627 39.3795 14.6547 39.9481L40.6547 49.2338C43.2596 50.1641 46 48.2329 46 45.4668V27.3768C46 25.9794 47.3966 25.0127 48.7044 25.5049L55.5222 28.0707C59.4195 29.5374 62 33.2657 62 37.4299V45.3076L32.6272 56.0399C31.0495 56.6164 30 58.1172 30 59.797V91.2797C30 94.0582 32.7631 95.9903 35.3728 95.0367L75.432 80.3996C79.3763 78.9584 82 75.2064 82 71.007L82.0001 31.047Z" fill="white"/></mask><g mask="url(#mask0)"><path d="M12 -1L82.0001 23.9998V58.3245C82.0001 61.0905 79.2601 63.0217 76.6551 62.0917L62 56.8593V37.4241C62 33.258 59.4171 29.5283 55.5172 28.063L48.7034 25.5029C47.3957 25.0116 46 25.9782 46 27.3751V51.1428L12 39V-1Z" fill="url(#paint0_linear)"/><g filter="url(#filter0_f)"><path d="M82 31.3998V31.3998C82 35.5992 79.3763 39.3586 75.4319 40.7998L30 57.3999V97.3999L82 78.3998V31.3998Z" fill="black" fill-opacity="0.24"/></g><g filter="url(#filter1_f)"><path d="M82 32.9998V32.9998C82 37.1992 79.3763 40.9585 75.4319 42.3997L30 58.9999V98.9999L82 79.9998V32.9998Z" fill="black" fill-opacity="0.32"/></g><path d="M82 30.9998V30.9998C82 35.1992 79.3763 38.9585 75.4319 40.3997L30 56.9999V96.9999L82 77.9998V30.9998Z" fill="url(#paint1_linear)"/><path opacity="0.5" d="M82 30.9998V30.9998C82 35.1992 79.3763 38.9585 75.4319 40.3997L30 56.9999V96.9999L82 77.9998V30.9998Z" fill="url(#paint2_linear)"/><path opacity="0.5" d="M62.0013 45.3202L45.9922 51.1768L45.9923 74.6349C45.9923 76.0323 47.389 76.9989 48.6968 76.5066L55.5241 73.9368C59.4211 72.4699 62.0013 68.7418 62.0013 64.5779V45.3202Z" fill="#B0ADFF"/></g></g></svg>
